X: 438
T: Santian bujian meimei de mian
L: 1/8
M: 2/4
K: Bb
f' d' c' f' [I:setbarnb 1]| 
c' g f d | 
f g b d | 
c4 | 
f' d' c' f' | 
c' g f d | 
f g f d | 
f g f d | 
f gc'2 | 
f'/ c'/b3 | 
gf3 |]

@@@ Tune index: 9312
